X: 33
M: C
L: 1/8
K: D
|:\
defe d2d2 | ABAG F2A2 | d2ef Tgfe2 | efed cBA2 |
defe d2d2 | ABAG F2A2 | d2ef gfec | e2d2 d3e :|
|:\
f2df afdf | Tf2df g3f | e2ce eece | edcB A3e |
f2df afdf | afdf g3f | efgf edcB | A2d2 d2z2 :|
sleepit in a peerie stane hoose caaed a lodge.  Dere wis only
room, da een next ta him wid say, "Lay dee at dee, boy".  Dis
is anidder een played wi da high bass.


